!!!COM:	des Prez, Josquin
!!!CDT:	~1450-1521/08/27
!!!OPR:	Missa L'homme arm&eacute; sexti toni
!!!ONM:	1
!!!OTL:	Kyrie
!!!AGN:	Mass; Kyrie
!!!SCT:	NJE 6.2
!!!SCA:	New Josquin Edition 6.2
!!!voices:	4
!!!voices-OPR:	4(-6)
**kern	**text	**kern	**text	**kern	**text	**kern	**text
*staff4	*	*staff3	*	*staff2	*	*staff1	*
*clefF4	*	*clefGv2	*	*clefGv2	*	*clefG2	*
*Ivox	*	*Ivox	*	*Ivox	*	*Ivox	*
*I"Bassus	*	*I"Tenor	*	*I"Altus	*	*I"Superius	*
*I'B	*	*I'T	*	*I'A	*	*I'S	*
*>[A,B,C]	*	*>[A,B,C]	*	*>[A,B,C]	*	*>[A,B,C]	*
*>Kyrie1[A]	*	*>Kyrie1[A]	*	*>Kyrie1[A]	*	*>Kyrie1[A]	*
*>Christe[B]	*	*>Christe[B]	*	*>Christe[B]	*	*>Christe[B]	*
*>Kyrie2[C]	*	*>Kyrie2[C]	*	*>Kyrie2[C]	*	*>Kyrie2[C]	*
*k[b-]	*	*k[b-]	*	*k[b-]	*	*k[b-]	*
*>A	*	*>A	*	*>A	*	*>A	*
*M3/1	*	*M3/1	*	*M3/1	*	*M3/1	*
*met(O)	*	*met(O)	*	*met(O)	*	*met(O)	*
=1-	=1-	=1-	=1-	=1-	=1-	=1-	=1-
!!section: Kyrie I
!!!OMD: Kyrie I
0.r	.	0.r	.	0F	Ky-	0.r	.
.	.	.	.	1F	-ri-	.	.
=2	=2	=2	=2	=2	=2	=2	=2
0.r	.	0.r	.	1F	-e	0f	Ky-
.	.	.	.	1.B-	.	.	.
.	.	.	.	.	.	1f	-ri-
.	.	.	.	2A/	.	.	.
=3	=3	=3	=3	=3	=3	=3	=3
0.r	.	0.r	.	1A	e-	1f	-e
.	.	.	.	2G/	-lei-	1.b-	.
.	.	.	.	2F/	.	.	.
.	.	.	.	1G	.	.	.
.	.	.	.	.	.	2a/	e-
=4	=4	=4	=4	=4	=4	=4	=4
0FF	Ky-	0.r	.	0F	-son,	1.a	-lei-
.	.	.	.	.	.	1f	.
1FF	-ri-	.	.	2F/	ky-	.	.
.	.	.	.	2G/	.	4e/	.
.	.	.	.	.	.	4d/	.
=5	=5	=5	=5	=5	=5	=5	=5
1FF	-e	0F	Ky-	1A	-ri-	1c	.
1.BB-	.	.	.	1B-	-e	1.d	.
.	.	1F	-ri-	1BB-	.	.	.
2AA/	.	.	.	.	.	2c/	.
=6	=6	=6	=6	=6	=6	=6	=6
1AA	e-	1F	-e	1C	.	1c	-son,
0GG	-lei-	1.B-	.	1D	.	1r	.
.	.	.	.	1BB-	.	1g	ky-
.	.	2A/	.	.	.	.	.
=7	=7	=7	=7	=7	=7	=7	=7
1FF	-son,	1A	e-	2C/	e-	1a	-ri-
.	.	.	.	2D/	.	.	.
1r	.	0G	-lei-	0E-i	-lei-	0b-	.
1EE-	e-	.	.	.	.	.	.
=8	=8	=8	=8	=8	=8	=8	=8
1.FF	-lei-	1F	-son,	2C/	.	0.a	.
.	.	.	.	1F	.	.	.
.	.	1r	.	.	.	.	.
2GG/	.	.	.	4Eni/	.	.	.
.	.	.	.	4D/	.	.	.
2AA/	.	[1c	ky-	[1C	.	.	.
2BB-/	.	.	.	.	.	.	.
=9	=9	=9	=9	=9	=9	=9	=9
1.C	.	1c]	.	2C/]	.	1g	e-
.	.	.	.	2D/	.	.	.
.	.	1.c	-ri-	2E/	.	1.g	-lei-
2D\	.	.	.	2F/	.	.	.
2E\	.	.	.	2G/	.	.	.
2F\	.	2A/	.	2c\	.	4f/	.
.	.	.	.	.	.	4e/	.
=10	=10	=10	=10	=10	=10	=10	=10
2G\	.	2B-\	.	2B-\	.	2d/	.
2.A\	.	2c\	.	2A/	.	1c	.
.	.	1F	-e,	1c	.	.	.
4G\	.	.	.	.	.	.	.
4F\	.	.	.	.	.	1f	.
4E\	.	.	.	.	.	.	.
1D	.	1r	.	1F	.	.	.
.	.	.	.	.	.	4e/	.
.	.	.	.	.	.	4d/	.
=11	=11	=11	=11	=11	=11	=11	=11
1C	-son,	1c	ky-	2G/	-son,	0e	-son,
.	.	.	.	2.C/	ky-	.	.
2r	.	2c\	-ri-	.	.	.	.
.	.	.	.	4D/	.	.	.
2C/	ky-	1c	-e	2.E/	.	.	.
2AA/	.	.	.	.	.	1r	.
.	.	.	.	4F/	.	.	.
2BB-/	-ri-	2B-\	e-	2D/	-ri-	.	.
=12	=12	=12	=12	=12	=12	=12	=12
2.C/	-e,	2A/	-lei-	2C/	-e,	2.e/	ky-
.	.	1G	.	2c\	.	.	.
4D\	.	.	.	.	.	4f/	.
2E\	.	.	.	2r	.	2g/	-ri-
2F\	.	2F/	.	2.c\	ky-	1.a	-e
1FF	.	1c	-son,	.	.	.	.
.	.	.	.	4B-\	.	.	.
.	.	.	.	4A/	.	.	.
.	.	.	.	4G/	.	.	.
=13	=13	=13	=13	=13	=13	=13	=13
2r	.	2c\	ky-	2F/	.	2a/	e-
2C/	ky-	1c	-ri-	2G/	-ri-	4g/	.
.	.	.	.	.	.	2e/	.
2AA/	.	.	.	2C/	-e	.	.
.	.	.	.	.	.	4f/	.
2BB-/	-ri-	2B-\	.	2D/	.	2d/	.
[1C	-e	2A/	.	[1E	.	2c/	.
.	.	[2G/	.	.	.	[2e	-lei-
=14	=14	=14	=14	=14	=14	=14	=14
1C]	.	4G/]	.	1E]	.	4e/]	.
.	.	4F/	.	.	.	4f/	.
.	.	1c	-e	.	.	2g/	.
2r	.	.	.	1F	e-	1a	-son,
2FF/	e-	2A/	e-	.	.	.	.
2GG/	-lei-	2B-\	-lei-	2D/	-lei-	2r	.
2EE-/	.	2c\	.	2G/	.	2g/	e-
=15	=15	=15	=15	=15	=15	=15	=15
2FF/	.	2A/	.	2F/	.	2a/	-lei-
2GG/	.	1B-	.	2D/	.	2g/	.
2EE-i/	.	.	.	2E-/	.	1b-	.
2GG/	.	2G/	.	2D/	.	.	.
2FF/	.	2A/	.	2F/	.	2a/	.
2GG/	.	2B-\	.	2D/	.	[2g/	.
=16	=16	=16	=16	=16	=16	=16	=16
2EE-i/	.	2G/	.	4E-i/	.	2g/]	.
.	.	.	.	4C/	.	.	.
2FF/	.	1A	.	1c	.	2f/	.
2C/	.	.	.	.	.	2e/	.
2D\	.	2F/	.	2B-\	.	2.f/	.
1C	.	2G/	.	[1cl	-son.	.	.
.	.	.	.	.	.	4e	.
.	.	2A/	.	.	.	4e	.
.	.	.	.	.	.	4d	.
=17	=17	=17	=17	=17	=17	=17	=17
0.FFl	-son.	0.Fl	-son.	0.cl]	.	0.fl	-son.
!!LO:LB:i:g=z
=18||	=18||	=18||	=18||	=18||	=18||	=18||	=18||
*>B	*	*>B	*	*>B	*	*>B	*
!!section: Christe
!!!OMD: Christe
*M2/1	*	*M2/1	*	*M2/1	*	*M2/1	*
*met(C|)	*	*met(C|)	*	*met(C|)	*	*met(C|)	*
0r	.	[0c	Chri-	[0F	Chri-	[0f	Chri-
=19	=19	=19	=19	=19	=19	=19	=19
0r	.	0c_	.	0F]	.	1.f]	.
.	.	.	.	.	.	4e/	.
.	.	.	.	.	.	4d/	.
=20	=20	=20	=20	=20	=20	=20	=20
[0C	Chri-	0c_	.	[0G	.	0e	-ste
=21	=21	=21	=21	=21	=21	=21	=21
0C]	.	0c]	.	0G]	.	1r	.
.	.	.	.	.	.	1e	e-
=22	=22	=22	=22	=22	=22	=22	=22
[0BB-	-ste	[0d	-ste	[0B-	-ste	1f	-lei-
.	.	.	.	.	.	1d	.
=23	=23	=23	=23	=23	=23	=23	=23
0BB-]	.	0d]	.	0B-]	.	0f	-son,
=24	=24	=24	=24	=24	=24	=24	=24
0C	e-	1r	.	1.G	e-	0e	.
.	.	[1c	e-	.	.	.	.
.	.	.	.	[2A/	-lei-	.	.
=25	=25	=25	=25	=25	=25	=25	=25
0AA	-lei-	1c]	.	4A/]	.	0r	.
.	.	.	.	4G/	.	.	.
.	.	.	.	4F/	.	.	.
.	.	.	.	4E/	.	.	.
.	.	1c	-lei-	1F/	.	.	.
=26	=26	=26	=26	=26	=26	=26	=26
[0GG	-son,	0B-	-son,	[0G	-son,	1r	.
.	.	.	.	.	.	[1d	Chri-
=27	=27	=27	=27	=27	=27	=27	=27
0GG]	.	1r	.	0G]	.	2d/]	.
.	.	.	.	.	.	4e/	.
.	.	.	.	.	.	4f/	.
.	.	1B-	Chri-	.	.	1g	-ste,
=28	=28	=28	=28	=28	=28	=28	=28
0r	.	0c	-ste	1C	Chri-	2r	.
.	.	.	.	.	.	2g/	Chri-
.	.	.	.	[1F	-ste	2a/	.
.	.	.	.	.	.	[2cc\	.
=29	=29	=29	=29	=29	=29	=29	=29
0r	.	0A	.	0F]	.	4cc\]	.
.	.	.	.	.	.	4b-\	.
.	.	.	.	.	.	4a/	.
.	.	.	.	.	.	4g/	.
.	.	.	.	.	.	1f	-ste,
=30	=30	=30	=30	=30	=30	=30	=30
[0C	Chri-	0G	.	0E	.	2r	.
.	.	.	.	.	.	2.g/	Chri-
.	.	.	.	.	.	4f/	.
.	.	.	.	.	.	4e/	.
.	.	.	.	.	.	4d/	.
=31	=31	=31	=31	=31	=31	=31	=31
1C]	.	0r	.	1E	e-	1c	-ste,
[1BB-	-ste	.	.	1F	-lei-	2r	.
.	.	.	.	.	.	[2d/	e-
=32	=32	=32	=32	=32	=32	=32	=32
0BB-]	.	0r	.	0D	.	2d/]	.
.	.	.	.	.	.	1f	-lei-
.	.	.	.	.	.	4e/	.
.	.	.	.	.	.	4d/	.
=33	=33	=33	=33	=33	=33	=33	=33
0C	e-	1r	.	2.C/	.	1e	-son,
.	.	.	.	4D/	.	.	.
.	.	[1c	e-	4E/	.	2r	.
.	.	.	.	4F/	.	.	.
.	.	.	.	[2G/	.	2g/	Chri-
=34	=34	=34	=34	=34	=34	=34	=34
0AA	-lei-	0c]	.	2G/]	.	2a/	.
.	.	.	.	4F/	.	1cc	.
.	.	.	.	4E/	.	.	.
.	.	.	.	1F	-son,	.	.
.	.	.	.	.	.	4b-\	.
.	.	.	.	.	.	4a/	.
=35	=35	=35	=35	=35	=35	=35	=35
0GG	-son,	[0d	-lei-	1.BB-	Chri-	1.b-	.
.	.	.	.	2C/	.	4a/	.
.	.	.	.	.	.	4g/	.
=36	=36	=36	=36	=36	=36	=36	=36
0r	.	1d]	.	1D	-ste	1f	-ste
.	.	[1c	.	2E/	e-	2g/	e-
.	.	.	.	[2F/	-lei-	[2a/	-lei-
=37	=37	=37	=37	=37	=37	=37	=37
0r	.	0c]	.	2F/]	.	4a/]	.
.	.	.	.	.	.	4g/	.
.	.	.	.	4E/	.	1g	.
.	.	.	.	4D/	.	.	.
.	.	.	.	1C	.	.	.
.	.	.	.	.	.	4f/	.
.	.	.	.	.	.	4e/	.
=38	=38	=38	=38	=38	=38	=38	=38
0r	.	1B-	.	1G	-son,	2.d/	.
.	.	.	.	.	.	4c/	.
.	.	1G	.	2r	.	[1g	-son,
.	.	.	.	[2G/	Chri-	.	.
=39	=39	=39	=39	=39	=39	=39	=39
0r	.	1B-	.	4G/]	.	1g]	.
.	.	.	.	4F/	.	.	.
.	.	.	.	4E/	.	.	.
.	.	.	.	4D/	.	.	.
.	.	1c	.	1C	-ste,	1g	Chri-
=40	=40	=40	=40	=40	=40	=40	=40
1r	.	0A	.	1.c	Chri-	1a	.
1F	e-	.	.	.	.	1cc	.
.	.	.	.	4B-\	.	.	.
.	.	.	.	4A/	.	.	.
=41	=41	=41	=41	=41	=41	=41	=41
[0G	-lei-	1.G	-son,	1B-	-ste,	1.b-	-ste
.	.	.	.	[1E-	.	.	.
.	.	[2B-\	Chri-	.	.	4a/	.
.	.	.	.	.	.	4g/	.
=42	=42	=42	=42	=42	=42	=42	=42
1G]	.	2B-\]	.	1E-]	.	1b-	.
.	.	4A/	.	.	.	.	.
.	.	4G/	.	.	.	.	.
[1F	.	2A/	-ste,	1F	Chri-	[1a	.
.	.	2F/	.	.	.	.	.
=43	=43	=43	=43	=43	=43	=43	=43
0F]	.	2r	.	1D	.	2a/]	.
.	.	1A	Chri-	.	.	4g/	.
.	.	.	.	.	.	4f/	.
.	.	.	.	1F	.	1a	.
.	.	4G/	.	.	.	.	.
.	.	4F/	.	.	.	.	.
=44	=44	=44	=44	=44	=44	=44	=44
1E	.	2G/	-ste	2.C/	-ste	1.g	.
.	.	2C/	e-	.	.	.	.
.	.	.	.	4D/	.	.	.
1C	.	[1c	-lei-	4E/	.	.	.
.	.	.	.	4F/	.	.	.
.	.	.	.	2G/	.	4f/	.
.	.	.	.	.	.	4e/	.
=45	=45	=45	=45	=45	=45	=45	=45
1E	.	2c\]	.	2C/	.	1g	e-
.	.	2B-\	.	2G/	e-	.	.
1F	.	2A/	.	2A/	-lei-	[1f	-lei-
.	.	2G/	.	[2c\	.	.	.
=46	=46	=46	=46	=46	=46	=46	=46
0D	.	1F	-son,	4c\]	.	2f/]	.
.	.	.	.	4B-\	.	.	.
.	.	.	.	2.d\	.	4e/	.
.	.	.	.	.	.	4d/	.
.	.	2r	.	.	.	1f	.
.	.	.	.	4A/	.	.	.
.	.	2F/	e-	2B-	.	.	.
=47	=47	=47	=47	=47	=47	=47	=47
[0Cl	-son.	2G/	-lei-	1c	-son,	[0el	-son.
.	.	2A/	.	.	.	.	.
.	.	2G/	.	2r	.	.	.
.	.	[2c\	.	2G/	e-	.	.
=48	=48	=48	=48	=48	=48	=48	=48
0C_	.	2c\]	.	2A/	-lei-	0e_	.
.	.	2B-\	.	2G/	.	.	.
.	.	2A/	.	[1c	.	.	.
.	.	2G/	.	.	.	.	.
=49	=49	=49	=49	=49	=49	=49	=49
0C_	.	[0cl	-son.	2c\]	.	0e_	.
.	.	.	.	2B-\	.	.	.
.	.	.	.	2.A/	.	.	.
.	.	.	.	4G/	.	.	.
=50	=50	=50	=50	=50	=50	=50	=50
0C]	.	0c]	.	0Gl	-son.	0e]	.
!!LO:LB:i:g=z	.		.		.	.	.
=51||	=51||	=51||	=51||	=51||	=51||	=51||	=51||
*>C	*	*>C	*	*>C	*	*>C	*
!!section: Kyrie II
!!!OMD: Kyrie II
*M3/1	*	*M3/1	*	*M3/1	*	*M3/1	*
*met(O|)	*	*met(O|)	*	*met(O|)	*	*met(O|)	*
[0.BB-	Ky-	0.F	Ky-	0B-	Ky-	0d	Ky-
.	.	.	.	1B-	-ri-	1d	-ri-
=52	=52	=52	=52	=52	=52	=52	=52
0.BB-]	.	0.B-	.	2F/	-e	1d	e
.	.	.	.	1G	.	.	.
.	.	.	.	.	.	2r	.
.	.	.	.	4F/	.	1.d	.
.	.	.	.	4E/	.	.	.
.	.	.	.	1D	.	.	.
=53	=53	=53	=53	=53	=53	=53	=53
0.C	-ri-	1A	-ri-	2C/	e-	1e	.
.	.	.	.	1.c	-lei-	.	.
.	.	0G	-e,	.	.	2r	.
.	.	.	.	.	.	1.e	.
.	.	.	.	2G/	.	.	.
.	.	.	.	4c\	.	.	.
.	.	.	.	4B-\	.	.	.
=54	=54	=54	=54	=54	=54	=54	=54
0.D	-e	0F	.	4A/	.	1f	.
.	.	.	.	4G/	.	.	.
.	.	.	.	1B-	.	.	.
.	.	.	.	.	.	2r	.
.	.	.	.	1A	.	1.f	.
.	.	1r	.	.	.	.	.
.	.	.	.	4G/	.	.	.
.	.	.	.	4F/	.	.	.
=55	=55	=55	=55	=55	=55	=55	=55
0.C	.	0c	ky-	2E/	.	1g	.
.	.	.	.	2.G/	.	.	.
.	.	.	.	.	.	2r	.
.	.	.	.	4F/	.	.	.
.	.	.	.	4E/	.	1.g	.
.	.	.	.	4D/	.	.	.
.	.	1c	-ri-	2C/	-son,	.	.
.	.	.	.	[2c\	ky-	.	.
=56	=56	=56	=56	=56	=56	=56	=56
1r	.	0F	-e,	4c\]	.	1a	.
.	.	.	.	4B-\	.	.	.
.	.	.	.	2.A/	.	.	.
0D	e-	.	.	.	.	2r	.
.	.	.	.	4G/	.	.	.
.	.	.	.	1F	.	1a	e-
.	.	1r	.	.	.	.	.
.	.	.	.	4E/	.	4g/	.
.	.	.	.	4D/	.	4f/	.
=57	=57	=57	=57	=57	=57	=57	=57
2C/	-lei-	0c	ky-	2E/	.	2g/	.
1F	.	.	.	2F/	.	1a	-lei-
.	.	.	.	1A	.	.	.
4E\	.	.	.	.	.	4g/	.
4D\	.	.	.	.	.	4f/	.
2E\	.	1c	-ri-	2G/	.	2g/	.
[2F\	.	.	.	2F/	-ri-	[2a/	.
=58	=58	=58	=58	=58	=58	=58	=58
4F\]	.	0F	-e,	0A	-e	4a/]	.
4E\	.	.	.	.	.	4g/	.
2.D\	.	.	.	.	.	2.f/	.
4C/	.	.	.	.	.	4e/	.
2AA/	.	.	.	.	.	2c/	.
2.BB-/	.	1r	.	2D/	e-	1d	-son,
.	.	.	.	[2F/	-lei-	.	.
4AA/	.	.	.	.	.	.	.
=59	=59	=59	=59	=59	=59	=59	=59
2.FF/	.	0.r	.	2F/]	.	2r	.
.	.	.	.	4E/	.	2.c/	e-
4GG/	.	.	.	4D/	.	.	.
4AA/	.	.	.	1C	-son,	.	.
4BB-/	.	.	.	.	.	4B-/	.
4C/	.	.	.	.	.	2A/	.
4D\	.	.	.	.	.	.	.
2E\	.	.	.	1r	.	2G/	-lei-
2F\	.	.	.	.	.	[2A/	.
=60	=60	=60	=60	=60	=60	=60	=60
2.D\	.	0.r	.	0.r	.	2A/]	.
.	.	.	.	.	.	1B-	.
4C/	.	.	.	.	.	.	.
2D\	.	.	.	.	.	.	.
2AA/	.	.	.	.	.	1A	.
1BB-	.	.	.	.	.	.	.
.	.	.	.	.	.	2G/	.
=61	=61	=61	=61	=61	=61	=61	=61
1AA	-son,	0.r	.	2r	.	1A	-son,
.	.	.	.	2.c\	e-	.	.
1r	.	.	.	.	.	2.c/	e-
.	.	.	.	4B-\	.	.	.
.	.	.	.	2A/	.	.	.
.	.	.	.	.	.	4d/	.
1r	.	.	.	2G/	-lei-	2e/	.
.	.	.	.	[2A/	.	2f/	-lei-
=62	=62	=62	=62	=62	=62	=62	=62
0.r	.	0.r	.	2A/]	.	2c/	.
.	.	.	.	2.B-\	.	2.d/	.
.	.	.	.	4A/	.	4c/	.
.	.	.	.	1A	.	2A/	.
.	.	.	.	.	.	1B-	.
.	.	.	.	2G/	.	.	.
=63	=63	=63	=63	=63	=63	=63	=63
2r	.	0c	ky-	1A	-son,	2A/	-son,
1F	ky-	.	.	.	.	1a	ky-
.	.	.	.	2r	.	.	.
4E\	-ri-	.	.	2A/	Ky-	4g/	-ri-
4D\	.	.	.	.	.	4f/	.
2E\	-e,-	1c	-ri-	2G/	.	2g/	-e,
2F\	.	.	.	2F/	-ri-	2a/	.
=64	=64	=64	=64	=64	=64	=64	=64
2C/	.	1c	-e-	1G	-e,	2r	.
1E-	-ky-	.	.	.	.	1g	ky-
.	.	[0B-	-lei-	2r	.	.	.
4D\	-ri-	.	.	2G/	ky-	4f/	-ri-
4C/	.	.	.	.	.	4e/	.
2D\	-e,	.	.	2F/	.	2f/	-e,-
2E-i\	.	.	.	2E-i/	-ri-	2g/	.
=65	=65	=65	=65	=65	=65	=65	=65
2BB-/	.	1B-]	.	1F	-e,	2r	.
1D	ky-	.	.	.	.	1f	-ky-
.	.	[0A	.	2r	.	.	.
4C/	-ri-	.	.	2F/	ky-	4e/	-ri-
4BB-/	.	.	.	.	.	4d/	.
2C/	-e,	.	.	2Ei/	.	2e/	-e,
2D\	.	.	.	2D/	-ri-	2f/	.
=66	=66	=66	=66	=66	=66	=66	=66
2AA/	.	1A]	.	1E	-e,	2r	.
1C	ky-	.	.	.	.	1e	ky-
.	.	[0G	.	2r	.	.	.
4BB-/	-ri-	.	.	2E/	ky-	4d/	-ri-
4AA/	.	.	.	.	.	4c/	.
2BB-/	-e,	.	.	2D/	.	2d/	-e,
2C/	.	.	.	2C/	-ri-	2e/	.
=67	=67	=67	=67	=67	=67	=67	=67
2GG/	.	1G]	.	1D	-e,	2r	.
1BB-	ky-	.	.	.	.	1d	ky-
.	.	[0F	-son,	2r	.	.	.
4AA/	-ri-	.	.	2D/	ky-	4c/	-ri-
4GG/	.	.	.	.	.	4B-/	.
2AA/	-e,	.	.	2C/	.	2c/	-e,
2BB-/	.	.	.	2BB-/	-ri-	2d/	.
=68	=68	=68	=68	=68	=68	=68	=68
0.FF	.	1F]	.	0.F	-e	2c/	.
.	.	.	.	.	.	1cc	e-
.	.	[0c	e-	.	.	.	.
.	.	.	.	.	.	2b-\	.
.	.	.	.	.	.	2a/	.
.	.	.	.	.	.	4g/	.
.	.	.	.	.	.	4f/	.
=69	=69	=69	=69	=69	=69	=69	=69
2.C/	e-	1c]	.	0.G	e-	1e	.
4D\	.	.	.	.	.	.	.
0E-	-lei-	0B-	-lei-	.	.	0g	-lei-
=70	=70	=70	=70	=70	=70	=70	=70
1F	.	1A	.	0.c	-lei-	0f	.
0C	.	0G	.	.	.	.	.
.	.	.	.	.	.	1e	.
=71	=71	=71	=71	=71	=71	=71	=71
0.FFl	-son.	0.Fl	-son.	0.Al	-son.	0.fl	-son.
==	==	==	==	==	==	==	==
*-	*-	*-	*-	*-	*-	*-	*-
!!!RDF**kern: l=long note in original notation
!!!RDF**kern: i=editorial accidental
!!!ENC:	Jesse Rodin; 2011/09/04
!!!END:	2011/09/04/
!!!SMS:	Petrucci 1502
!!!EED:	Jesse Rodin
!!!EEV:	2011/10/03/
!!attribution-level@Jos: 1 (secure, core group [checkmark])
!!!ONB:	Translated from MusicXML and edited on 2011/10/03/ by Craig Sapp
!!muse2ps: T^@{OPR}^u^@{ONM}{. }@{OTL}^C^@{COM}\n@{SCT}^i2I150v90,90,90,120c105z18l2700t130
